source/images/icons/icon-editorial/livre.svg

<?xml version="1.0" encoding="UTF-8"?>
<svg width="80px" height="80px" viewBox="0 0 80 80" version="1.1" xmlns="http://www.w3.org/2000/svg" xmlns:xlink="http://www.w3.org/1999/xlink">
    <!-- Generator: Sketch 55.2 (78181) - https://sketchapp.com -->
    <title>Illustrative Icons/Livre</title>
    <desc>Created with Sketch.</desc>
    <g id="Illustrative-Icons/Livre" stroke="none" stroke-width="1" fill="none" fill-rule="evenodd">
        <path d="M58.6666667,10 L50.3333334,10 L50.3333334,25.4816667 L47,22.895 L43.6666667,25.4583334 L43.6666667,10 L25.3333333,10 C24.4128588,10 23.6666667,10.7461921 23.6666667,11.6666667 C23.6666667,12.5871413 24.4128588,13.3333333 25.3333333,13.3333333 L40.3333334,13.3333333 L40.3333334,32.2166667 L47,27.1066667 L53.6666667,32.2966667 L53.6666667,13.3333333 L58.6666667,13.3333333 C59.5871413,13.3333333 60.3333334,14.0795254 60.3333334,15 L60.3333334,56.6666667 L23.77,56.6666667 C22.5612284,56.6671086 21.3746084,56.9910984 20.3333333,57.6050001 L20.3333333,18.3333333 C20.3333333,17.4128588 19.5871413,16.6666667 18.6666667,16.6666667 C17.7461921,16.6666667 17,17.4128588 17,18.3333333 L17,63.3333334 C17,63.3466667 17,63.3600001 17,63.3733334 C17.021998,67.0396012 20.0003329,70 23.6666667,70 L58.6666667,70 C61.4280905,70 63.6666667,67.7614238 63.6666667,65 L63.6666667,15 C63.6666667,12.2385763 61.4280905,10 58.6666667,10 Z M60.3333334,65.0000001 C60.3333334,65.9204747 59.5871413,66.666667 58.6666667,66.666667 L23.6666667,66.666667 C22.765903,66.6670326 21.9033356,66.3028325 21.2754102,65.6570113 C20.6474849,65.0111901 20.3076615,64.1387312 20.3333333,63.2383334 C20.3816667,61.4533334 21.9233333,60.0000001 23.77,60.0000001 L60.3333334,60.0000001 L60.3333334,65.0000001 Z M18.6666667,13.3333333 C19.5871413,13.3333333 20.3333333,12.5871413 20.3333333,11.6666667 C20.3333333,10.7461921 19.5871413,10 18.6666667,10 C17.7461921,10 17,10.7461921 17,11.6666667 C17,12.5871413 17.7461921,13.3333333 18.6666667,13.3333333 Z" id="Shape-color" fill="#ADB5BD"></path>
    </g>
</svg>

<svg width="80" height="80">
    <title>
        Illustrative Icons/Livre
    </title>
    <path d="M58.667 10h-8.334v15.482L47 22.895l-3.333 2.563V10H25.333a1.667 1.667 0 0 0 0 3.333h15v18.884L47 27.107l6.667 5.19V13.333h5c.92 0 1.666.747 1.666 1.667v41.667H23.77a6.772 6.772 0 0 0-3.437.938V18.333a1.667 1.667 0 1 0-3.333 0v45.04A6.667 6.667 0 0 0 23.667 70h35a5 5 0 0 0 5-5V15a5 5 0 0 0-5-5zm1.666 55c0 .92-.746 1.667-1.666 1.667h-35a3.333 3.333 0 0 1-3.334-3.429C20.382 61.453 21.923 60 23.77 60h36.563v5zM18.667 13.333a1.667 1.667 0 1 0 0-3.333 1.667 1.667 0 0 0 0 3.333z" fill="#ADB5BD" fill-rule="evenodd"/>
</svg>
